!!!OTL: Das Schwabentoechterlein ES het ein schwab ein toechterlin,
!!!ARE: Europa, Mitteleuropa, Deutschland
!!!YOR: 4, S. 39
!!    1535 gedruckt
!!!SCT: Q0073
!!!YEM: Copyright 1995, estate of Helmut Schaffrath.
**kern
*ICvox
*Ivox
!! Irregular meter.
*MX
*k[b-]
*d:
{4a
=1
4b-
4b-
4ccn
4ccn
!*M4/4
=2
4dd
4dd
2a}
=3
{4a
=4
2dd
4dd
2dd
4a
=5
2dd
2ccn}
=6
{4a
=7
4b-
4b-
4a
4a
=8
4g
4g
2d}
=9
{4d
=10
4.fn
8g
4a
4b-
=11
4.ccn
8b-
8a
8g
2ccn
8b-
8a
=12
2g
1fn
2r}
{4.a
8b-
4ccn
4ccn
=13
4g
4fn
4d
4e
=14
1d}
==
!!!AGN: Ballade, Weglaufen, Schwangerschaft, Rueckkehr
!! Letzte Zeile = Refrain.
!!!ONB: ESAC (Essen Associative Code) Database: BALLADE
!!!AMT: irregular
!!!AIN: vox
!!!EED: Helmut Schaffrath
!!!EEV: 1.0
*-
